src/icons/dollar.svg

<svg width="24" height="40" viewBox="0 0 24 40" fill="none" xmlns="http://www.w3.org/2000/svg">
<path d="M10.2476 39.9878H14.8382V36.3246C20.078 35.2581 23.1848 31.4094 23.1848 26.3087C23.1848 16.3855 9.64476 16.8492 9.64476 12.444C9.64476 11.192 10.6649 10.2647 12.1951 10.2647C14.6527 10.2647 15.6265 12.0267 16.2757 13.4642L22.8602 10.4501C22.1183 8.31712 19.9853 4.19019 14.8382 3.17005V0.480591H10.2476V3.12368C5.00776 3.8656 1.71549 7.43609 1.71549 12.5832C1.71549 22.97 15.1628 22.5991 15.1628 26.9115C15.1628 28.3489 14.189 29.1836 12.2879 29.1836C10.0621 29.1836 8.30003 27.4679 7.419 25.5667L0.788086 28.859C1.53001 31.1311 4.08036 35.8145 10.2476 36.5101V39.9878Z" fill="#C06D3A"/>
</svg>

<svg width="34" height="40" viewBox="0 0 34 40" fill="none" xmlns="http://www.w3.org/2000/svg"><path d="M10.248 39.988h4.59v-3.663c5.24-1.067 8.347-4.916 8.347-10.016 0-9.924-13.54-9.46-13.54-13.865 0-1.252 1.02-2.18 2.55-2.18 2.458 0 3.431 1.763 4.08 3.2l6.585-3.014c-.742-2.133-2.875-6.26-8.022-7.28V.48h-4.59v2.644c-5.24.742-8.533 4.312-8.533 9.46 0 10.386 13.448 10.015 13.448 14.328 0 1.437-.974 2.272-2.875 2.272-2.226 0-3.988-1.716-4.869-3.617l-6.63 3.292c.741 2.272 3.291 6.956 9.459 7.651v3.478z" fill="#C06D3A"/></svg>
